X:1
T:Title
%%score 1 2 3 4
L:1/8
M:2/2
K:C
V:1 treble nm="Part_1"
V:2 treble-8 nm="Part_2"
V:3 treble-8 nm="Part_3"
V:4 bass nm="Part_4"
V:1
 A8- | A8 | G8 | A8- | A4 F4- | F8 | G6 E2 | F4 E4- | E2 D2 D4- | D4 C4 | D8 | z8 | D8 | F8 | A8 | %15
 A8 | z8 | z8 | z8 | z8 | B8 | G8 | A4 B4 | c6 A2 | B4 d4 | c4 B4- | B2 A2 A4- | A4 G4 | A8- | A8 | %30
 z8 | !fermata!B8 | !fermata!c8 | !fermata!d8 | !fermata!c8 | z8 | B8 | A4 A4- | A2 F2 G4- | %39
 G2 A2 B4 | A4 d4 | c4 B4- | B2 A2 A4- | A4 G4 | A8 | z8 | A8- | A8 | F8 | G6 E2 | F4 E4- | %51
 E2 D2 D4- | D4 C4 | D8 | E8 | F4 G4 | E4 F4 | G4 A4- | A2 F2 G4 | F4 E4- | E2 D2 D4- | D4 C4 | %62
[M:4/2] D16 |] %63
V:2
 A8 | c8 | B8 | A8 | F8 | D8 | E8 | D4 G4- | G4 F4 | E8 | D8- | D8 | z8 | z8 | D8 | F8 | A8 | A8 | %18
 D8 | F8 | E8 | E8 | F4 E4 | A8 | G4 B4 | A4 d4- | d4 c4 | B8 | A8- | A8 | z8 | !fermata!G8 | %32
 !fermata!A8 | !fermata!G8 | !fermata!A8 | z8 | E8 | F8 | z2 D2 E4- | E4 G4 | A4 B4 | A4 d4- | %42
 d4 c4 | B8 | A8- | A8 | A8 | F8 | D8 | E8 | D4 G4- | G4 F4 | E8 | D8 | G8 | A4 E4- | E4 D4 | %57
 E4 F4 | D4 E4 | A8 | G4 F4 | E8 |[M:4/2] D16 |] %63
V:3
 c8 | A8 | E8 | F4 D4- | D4 A4 | d8 | B4 c4 | d4 B4- | B2 A2 A4- | A4 G4 | A8- | A8 | z8 | z8 | %14
 z8 | z8 | D8 | F8 | A8 | A8 | e8 | B8 | c4 B4 | e8 | d4 f4 | e4 B4 | G4 A4 | E8 | e8- | e8 | z8 | %31
 !fermata!d8 | !fermata!e8 | !fermata!g8 | !fermata!e8 | z8 | e8 | c8 | d4 B4- | B4 d4 | c4 f4 | %41
 e4 B4 | G4 A4 | E8 | e8 | c8 | F4 D4- | D4 A4 | d8 | B4 c4 | d4 B4- | B2 A2 A4- | A4 G4 | A8 | %54
 B8 | c4 e4 | B2 c2 d4 | e4 (3:2:2c4 B2 | d4 B4 | c6 A2 | B4 A4 | B2 G4 F2 |[M:4/2] A16 |] %63
V:4
 A,,8- | A,,8 | E,8 | A,,8 | D,8 | A,8 | z4 B,4 | A,4 E,4 | C,4 D,4 | A,,8 | A,8- | A,8 | z8 | z8 | %14
 z8 | z8 | D,8 | F,8 | A,8 | A,8 | G,8 | C,8 | D,4 C,4 | A,,8 | E,4 G,4 | F,4 D,4- | D,4 A,4 | %27
 E,8 | A,,8- | A,,8 | z8 | !fermata!E,8 | !fermata!A,8 | !fermata!G,8 | !fermata!A,8 | z8 | G,8 | %37
 D,8 | A,4 B,4- | B,4 E,4 | D,4 G,4 | F,4 D,4- | D,4 A,4 | E,8 | A,,8 | D,6 C,2 | A,,8 | D,8 | %48
 A,8 | B,6 G,2 | A,4 E,4 | C,4 D,4 | A,,8 | A,4 F,4 | C,8 | D,4 C,4 | A,,4 A,4 | G,4 D,4 | %58
 F,4 C,4 | D,4 A,,4 | E,4 D,4 | A,,8 |[M:4/2] A,16 |] %63

